public/images/background/grass.svg

<svg width="88" height="63" viewBox="0 0 88 63" fill="none" xmlns="http://www.w3.org/2000/svg">
<path d="M85.8037 35.3359C92.9545 34.1694 88.5861 52.2766 83.2167 60.8592C83.038 61.1449 82.7256 61.3092 82.3886 61.3092L10.7513 61.3085C10.6023 61.3085 10.4539 61.2735 10.3176 61.2133C6.0192 59.3129 2.20905 62.112 1.83984 41.5487C1.47713 21.3464 9.64537 23.7752 14.1834 27.8163C14.4659 28.0679 14.4542 28.7712 14.554 28.4062C15.2027 26.0336 22.4585 3.45321 33.0962 3.70868C45.0936 3.9968 46.7895 21.1314 46.4783 23.0418C46.1672 24.9521 56.5571 -3.67303 70.2213 2.33021C83.8855 8.33346 76.8727 33.9867 71.6583 46.063C73.3408 42.982 78.5254 36.5231 85.8037 35.3359Z" fill="#71A20F" stroke="black" stroke-width="2" stroke-linejoin="round"/>
</svg>

<svg width="88" height="63" viewBox="0 0 88 63" fill="none" xmlns="http://www.w3.org/2000/svg"><path d="M85.804 35.336c7.15-1.167 2.782 16.94-2.587 25.523a.968.968 0 0 1-.828.45H10.75a1.08 1.08 0 0 1-.433-.096c-4.299-1.9-8.109.899-8.478-19.664-.363-20.203 7.805-17.774 12.343-13.733.283.252.271.955.371.59.649-2.372 7.905-24.953 18.542-24.697 11.998.288 13.694 17.422 13.382 19.333-.31 1.91 10.08-26.715 23.743-20.712 13.664 6.003 6.652 31.657 1.437 43.733 1.683-3.081 6.867-9.54 14.146-10.727z" fill="#71A20F" stroke="#000" stroke-width="2" stroke-linejoin="round"/></svg>
